X:1
T:Just a Word for Jesus
T:Just a Word for Jesus
T:William Howard Doane
T:Frances Jane (Fanny) Crosby, 1870
T:Public Domain Courtesy of the Cyber Hymnal™
C:William Howard Doane
Z:Public Domain
Z:Courtesy of the Cyber Hymnal™
%%score ( 1 2 ) ( 3 4 )
L:1/8
Q:1/4=110
M:4/4
K:D
V:1 treble 
V:2 treble 
V:3 bass 
V:4 bass 
V:1
 D2 | [DF]3 [CE] D2 [Fd]2 | [Gd]4 [GB]2 [GB]2 | [FA]3 [DF] [DF]2 [DE]2 | [CE]6 [CG]2 | %5
w: 1.~Now|just a word for|Je- sus; Your|dear- est friend so|true; Come,|
w: 2.~Now|just a word for|Je- sus; You|feel your sins for-|given, And|
w: 3.~Now|just a word for|Je- sus; A|cross it can- not|be To|
w: 4.~Now|just a word for|Je- sus; Let|not the time be|lost; The|
w: 5.~Now|just a word for|Je- sus; And|if your faith be|dim; A-|
 [DF]3 [CE] D2 [Fd]2 | [Gd]4 [GB]2 [Gd]2 | [FA]3 [DF] [CE]3 D | D6 ||"^Refrain" [FA]2 | %10
w: cheer our hearts and|tell us What|He hath done for|you.||
w: by His grace are|striv- ing To|reach a home in|Heaven.||
w: say, “I love my|Sav- ior Who|gave His life for|me.”||
w: heart’s ne- glect- ed|du- ty Brings|sor- row, to its|cost.||
w: rise in all your|weak- ness And|leave the rest to|Him.||
 [Fd]3 [Fe] [Gd]2 [GB]2 | [FA]4 [DF]2 [FA]2 | [Fd]3 [Gc] [Fd]2 [DF]2 | ([DF]4 [CE]2) [EG]2 | %14
w: ||||
w: ||||
w: ||||
w: ||||
w: ||||
 [DF]3 [CE] D2 [Fd]2 | [Gd]4 [GB]2 [Gd]2 | [FA]3 [DF] [CE]3 D | D6 |] %18
w: ||||
w: ||||
w: ||||
w: ||||
w: ||||
V:2
 D2 | x4 D2 x2 | x8 | x8 | x8 | x4 D2 x2 | x8 | x7 D | D6 || x2 | x8 | x8 | x8 | x8 | x4 D2 x2 | %15
 x8 | x7 D | D6 |] %18
V:3
 [D,F,]2 | [D,A,]3 [E,A,] [F,A,]2 [D,A,]2 | [G,B,]4 [G,D]2 [G,D]2 | %3
w: ~|~ ~ ~ ~|~ ~ ~|
 [D,D]3 [D,A,] [E,^G,]2 [E,G,]2 | [A,,A,]6 [A,,A,]2 | [D,A,]3 [E,A,] [F,A,]2 [D,A,]2 | %6
w: ~ ~ ~ ~|~ ~|~ ~ ~ ~|
 [G,B,]4 [G,D]2 [G,B,]2 | [A,D]3 A, [A,,G,]3 [D,F,] | [D,F,]6 || [D,A,]2 | %10
w: ~ ~ ~|~ ~ ~ ~|~|Now|
 [D,A,]3 [D,A,] [D,B,]2 [D,D]2 | [D,D]4 [D,A,]2 [D,D]2 | [D,A,]3 [E,A,] [D,A,]2 [D,A,]2 | %13
w: just a word for|Je- sus, ’Twill|help us on our|
 [A,,A,]6 [A,,A,]2 | [D,A,]3 [E,A,] [F,A,]2 [D,A,]2 | [G,B,]4 [G,D]2 [G,B,]2 | %16
w: way! One|lit- tle word for|Je- sus, Oh|
 [A,D]3 A, [A,,G,]3 [D,F,] | [D,F,]6 |] %18
w: speak, or sing, or|pray!|
V:4
 x2 | x8 | x8 | x8 | x8 | x8 | x8 | x3 A, x4 | x6 || x2 | x8 | x8 | x8 | x8 | x8 | x8 | x3 A, x4 | %17
 x6 |] %18

